src/male.svg

<?xml version="1.0" encoding="utf-8"?>
<!-- Generated by IcoMoon.io -->
<!DOCTYPE svg PUBLIC "-//W3C//DTD SVG 1.1//EN" "http://www.w3.org/Graphics/SVG/1.1/DTD/svg11.dtd">
<svg version="1.1" xmlns="http://www.w3.org/2000/svg" xmlns:xlink="http://www.w3.org/1999/xlink" width="512" height="512" viewBox="0 0 512 512">
<path fill="#000000" d="M480 192v-160h-160l63 63-68.7 68.7c-29.5-22.4-66.4-35.7-106.3-35.7-97.2 0-176 78.8-176 176s78.8 176 176 176 176-78.8 176-176c0-39.9-13.3-76.8-35.7-106.3l68.7-68.7 63 63zM298.5 394.5c-24.2 24.2-56.3 37.5-90.5 37.5s-66.3-13.3-90.5-37.5c-24.2-24.2-37.5-56.3-37.5-90.5s13.3-66.3 37.5-90.5c24.2-24.2 56.3-37.5 90.5-37.5s66.3 13.3 90.5 37.5 37.5 56.3 37.5 90.5-13.3 66.3-37.5 90.5z"></path>
</svg>

<?xml version="1.0" encoding="utf-8"?>
<!-- Generator: Adobe Illustrator 16.2.1, SVG Export Plug-In . SVG Version: 6.00 Build 0)  -->
<!DOCTYPE svg PUBLIC "-//W3C//DTD SVG 1.1//EN" "http://www.w3.org/Graphics/SVG/1.1/DTD/svg11.dtd">
<svg version="1.1" id="Layer_1" xmlns="http://www.w3.org/2000/svg" xmlns:xlink="http://www.w3.org/1999/xlink" x="0px" y="0px"
	 width="512px" height="512px" viewBox="0 0 512 512" style="enable-background:new 0 0 512 512;" xml:space="preserve">
<path d="M480,192V32H320l63,63l-68.7,68.7C284.8,141.3,247.9,128,208,128c-97.2,0-176,78.8-176,176s78.8,176,176,176
	s176-78.8,176-176c0-39.9-13.3-76.8-35.7-106.3L417,129L480,192z M298.5,394.5C274.3,418.7,242.2,432,208,432s-66.3-13.3-90.5-37.5
	C93.3,370.3,80,338.2,80,304s13.3-66.3,37.5-90.5c24.2-24.2,56.3-37.5,90.5-37.5s66.3,13.3,90.5,37.5S336,269.8,336,304
	S322.7,370.3,298.5,394.5z"/>
</svg>
